svg/600/sharp/handshake-fill.svg

<svg xmlns="http://www.w3.org/2000/svg" width="48" height="48" viewBox="0 -960 960 960"><path d="m481.174-77.999 473.827-475.827-354.392-353.827-102.566 102.566 225.956 225.391L607.39-463.522 429.173-641.739 175.477-390.043l61.522 62.087 208.478-209.043 22 21L256.173-305.26l60.522 61.087 210.174-209.739 21 21L337.26-222.173l61.522 61.522L609.956-372.39l21 21-211.304 211.304 61.522 62.087ZM161.652-417.652l267.086-267.087L607.39-506.652l73.609-73.044-329.522-330.088-341.26 341.261 151.435 150.871Z"/></svg>

<svg xmlns="http://www.w3.org/2000/svg" width="48" height="48" viewBox="0 -960 960 960"><path d="M481.17-78 955-553.83 600.61-907.65 498.04-805.09 724-579.7 607.39-463.52 429.17-641.74l-253.69 251.7L237-327.96 445.48-537l22 21-211.31 210.74 60.53 61.09 210.17-209.74 21 21-210.61 210.74 61.52 61.52 211.18-211.74 21 21-211.31 211.3L481.17-78ZM161.65-417.65l267.09-267.09 178.65 178.09L681-579.7 351.48-909.78 10.22-568.52l151.43 150.87Z"/></svg>
